X: 7717
T:Repeal the Poll Tax
R:Reel
O:Scotland
M:4/4
C:Sandy Mathers
K:A
AB | \
ceec dcBc | AFEF A2FA | B2BA cefe | afec B2AB |\
ceec dcBc | AFEF A2FA | B2BA cefe | afec A2 :: \
ce | \
f2fe faaf | feef c2ec | BBBA cefe | afec B2ce |\
f2fe faaf | feef c2ec | B2BA cefe | afec A2:|
